X:1
T:Title
%%score { ( 1 3 ) | ( 2 4 ) }
L:1/8
Q:1/4=108
M:4/4
K:F
V:1 treble nm="Church Organ"
V:3 treble 
V:2 bass 
V:4 bass 
V:1
 z4 z2 [Fc]2 | [Fd]2 cB [FA]2 [DGB]2 | [FA]2 [EG]2 [A,F]2 [G,CG]2 | A=B [Ec]2 c2 B2 | [Ec]6 [Fc]2 | %5
 [Fd]2 cB [FA]2 [DGB]2 | [FA]2 [EG]2 [A,F]2 [G,CG]2 | A=B [Ec]2 c2 B2 | [Ec]6 [CEG]2 | %9
 [CEG]2 [C^FA]2 [DGB]2 [CGB]2 | [CGA]2 [CFA]2 [CEG]2 [C_Ec]2 | [CDF]2 [B,EG]2 [A,FA]2 [CFA]2 | %12
 [DFG]2 .[CEG]2 [A,F]4 |] %13
V:2
 z4 z2 [F,A,]2 | [B,,B,]2 [C,G,]2 [D,F,]2 G,,2 | A,,B,, z B, F,2 E,2 | %3
 [D,F,]2 [C,G,]2 [F,A,D]2 [G,D]2 | [C,G,]6 [F,A,]2 | [B,,B,]2 [C,G,]2 [D,F,]2 G,,2 | %6
 A,,B,, z B, F,2 E,2 | [D,F,]2 [C,G,]2 [F,A,D]2 [G,D]2 | [C,G,]6 C,2 | B,2 A,2 G,2 E,2 | %10
 F,2 F,,2 C,2 A,,2 | B,,2 G,,2 F,,2 A,,2 | B,,2 z B, F,4 |] %13
V:3
 x8 | z2 E2 z4 | C4 z4 | F2 z2 z4 | x8 | z2 E2 z4 | C4 z4 | F2 z2 z4 | x8 | x8 | x8 | x8 | x8 |] %13
V:4
 x8 | x8 | z2 C,2 z4 | x8 | x8 | x8 | z2 C,2 z4 | x8 | x8 | x8 | x8 | x8 | z2 C,2 z4 |] %13

